X: 34304
T: Restless Boy, The
R: jig
M: 6/8
K: Gmajor
|:B2G Adc|B3 BAG|B2G AFD|FGG GFD|
B2G Adc|B2G ABc|dge f2d|cAF G3:|
|:GBd g3|fed cAF|GB/c/d g3|faf g3|
faf g2e|fed cAF|DBB BAG|Bc/d/B cAF:|
|:DBB B2d|cAA AGF|G3 BAG|BdB cAF|
DBB B2d|cAA ABc|dge f2d|cAF G3:|

